Simply black circles/scalable/status/dialog-error.svg

<?xml version="1.0" encoding="UTF-8" standalone="no"?>
<!-- Created with Inkscape (http://www.inkscape.org/) -->

<svg
   xmlns:dc="http://purl.org/dc/elements/1.1/"
   xmlns:cc="http://creativecommons.org/ns#"
   xmlns:rdf="http://www.w3.org/1999/02/22-rdf-syntax-ns#"
   xmlns:svg="http://www.w3.org/2000/svg"
   xmlns="http://www.w3.org/2000/svg"
   xmlns:xlink="http://www.w3.org/1999/xlink"
   xmlns:sodipodi="http://sodipodi.sourceforge.net/DTD/sodipodi-0.dtd"
   xmlns:inkscape="http://www.inkscape.org/namespaces/inkscape"
   id="svg3334"
   width="24"
   height="24"
   version="1.0"
   sodipodi:docname="dialog-error.svg"
   inkscape:version="0.92.3 (2405546, 2018-03-11)">
  <metadata
     id="metadata40">
    <rdf:RDF>
      <cc:Work
         rdf:about="">
        <dc:format>image/svg+xml</dc:format>
        <dc:type
           rdf:resource="http://purl.org/dc/dcmitype/StillImage" />
        <dc:title></dc:title>
      </cc:Work>
    </rdf:RDF>
  </metadata>
  <sodipodi:namedview
     pagecolor="#ffffff"
     bordercolor="#666666"
     borderopacity="1"
     objecttolerance="10"
     gridtolerance="10"
     guidetolerance="10"
     inkscape:pageopacity="0"
     inkscape:pageshadow="2"
     inkscape:window-width="1366"
     inkscape:window-height="719"
     id="namedview38"
     showgrid="false"
     inkscape:zoom="11.083334"
     inkscape:cx="-6.7218034"
     inkscape:cy="11.639098"
     inkscape:window-x="0"
     inkscape:window-y="25"
     inkscape:window-maximized="1"
     inkscape:current-layer="svg3334"
     inkscape:snap-global="true"
     showguides="true"
     inkscape:guide-bbox="true" />
  <defs
     id="defs3336">
    <linearGradient
       id="linearGradient2877"
       x1="25.058001"
       x2="25.058001"
       y1="47.028"
       y2="39.999001"
       gradientUnits="userSpaceOnUse">
      <stop
         id="stop3704"
         style="stop-opacity:0"
         offset="0" />
      <stop
         id="stop3710"
         offset=".5" />
      <stop
         id="stop3706"
         style="stop-opacity:0"
         offset="1" />
    </linearGradient>
    <radialGradient
       id="radialGradient2875"
       cx="4.993"
       cy="43.5"
       r="2.5"
       gradientTransform="matrix(2.0038,0,0,1.4,-20.012,-104.4)"
       gradientUnits="userSpaceOnUse"
       xlink:href="#linearGradient3688" />
    <linearGradient
       id="linearGradient3688">
      <stop
         id="stop3690"
         offset="0" />
      <stop
         id="stop3692"
         style="stop-opacity:0"
         offset="1" />
    </linearGradient>
    <radialGradient
       id="radialGradient2873"
       cx="4.993"
       cy="43.5"
       r="2.5"
       gradientTransform="matrix(2.0038,0,0,1.4,27.988,-17.4)"
       gradientUnits="userSpaceOnUse"
       xlink:href="#linearGradient3688" />
    <linearGradient
       id="linearGradient2865"
       x1="24"
       x2="24"
       y1="44"
       y2="3.8989999"
       gradientTransform="translate(0,0.96744)"
       gradientUnits="userSpaceOnUse">
      <stop
         id="stop2492"
         style="stop-color:#791235"
         offset="0" />
      <stop
         id="stop2494"
         style="stop-color:#dd3b27"
         offset="1" />
    </linearGradient>
    <radialGradient
       id="radialGradient2863"
       cx="12.011"
       cy="10.424"
       r="20"
       gradientTransform="matrix(5.6342e-8,1.6801,-2.4235,1.0381e-8,44.478,-5.9267)"
       gradientUnits="userSpaceOnUse">
      <stop
         id="stop3244"
         style="stop-color:#f89b7e"
         offset="0" />
      <stop
         id="stop3246"
         style="stop-color:#e35d4f"
         offset=".26238" />
      <stop
         id="stop3248"
         style="stop-color:#c6262e"
         offset=".66094" />
      <stop
         id="stop3250"
         style="stop-color:#690b2c"
         offset="1" />
    </radialGradient>
    <linearGradient
       id="linearGradient2855"
       x1="24"
       x2="24"
       y1="5"
       y2="43"
       gradientTransform="translate(0,0.96744)"
       gradientUnits="userSpaceOnUse">
      <stop
         id="stop3310-1-4"
         style="stop-color:#fff"
         offset="0" />
      <stop
         id="stop3312-5-3"
         style="stop-color:#fff;stop-opacity:0"
         offset="1" />
    </linearGradient>
  </defs>
  <path
     style="fill:#550000;fill-opacity:1;stroke-width:0.26165536"
     d="M 12 0.15820312 A 11.84323 11.84323 0 0 0 0.15625 12.001953 A 11.84323 11.84323 0 0 0 12 23.841797 A 11.84323 11.84323 0 0 0 23.84375 12.001953 A 11.84323 11.84323 0 0 0 12 0.15820312 z M 11.966797 1.9179688 A 10.181907 10.181907 0 0 1 15.527344 2.5742188 L 12 4.1953125 L 8.0957031 2.6914062 A 10.181907 10.181907 0 0 1 11.966797 1.9179688 z M 15.835938 2.6875 A 10.181907 10.181907 0 0 1 21.238281 7.9238281 L 17.460938 6.4589844 L 15.835938 2.6875 z M 7.8398438 2.8066406 L 6.4316406 6.6503906 L 2.5234375 8.3105469 A 10.181907 10.181907 0 0 1 7.8398438 2.8066406 z M 8.1367188 7.21875 C 8.3513768 7.21875 8.5649661 7.3028225 8.7285156 7.4707031 L 12 10.828125 L 15.271484 7.4707031 C 15.598584 7.1349428 16.129935 7.1349428 16.457031 7.4707031 C 16.784128 7.8064623 16.784128 8.3517398 16.457031 8.6875 L 13.185547 12.044922 L 16.457031 15.402344 C 16.784128 15.738106 16.784128 16.285331 16.457031 16.621094 C 16.293482 16.788972 16.088163 16.873047 15.863281 16.873047 C 15.638404 16.873047 15.435033 16.788981 15.271484 16.621094 L 12 13.261719 L 8.7285156 16.621094 C 8.5649668 16.788972 8.3615993 16.873047 8.1367188 16.873047 C 7.9118394 16.873047 7.7065173 16.788981 7.5429688 16.621094 C 7.2158707 16.285331 7.2158707 15.738106 7.5429688 15.402344 L 10.814453 12.044922 L 7.5429688 8.6875 C 7.2158707 8.3517398 7.2158708 7.8064623 7.5429688 7.4707031 C 7.7065172 7.3028229 7.9220605 7.21875 8.1367188 7.21875 z M 21.330078 8.125 A 10.181907 10.181907 0 0 1 22.148438 12.101562 A 10.181907 10.181907 0 0 1 21.460938 15.751953 L 19.814453 11.925781 L 21.330078 8.125 z M 2.4941406 8.3867188 L 4.1855469 12.316406 L 2.6484375 16.177734 A 10.181907 10.181907 0 0 1 1.7832031 12.101562 A 10.181907 10.181907 0 0 1 2.4941406 8.3867188 z M 21.376953 15.978516 A 10.181907 10.181907 0 0 1 16.197266 21.349609 L 17.648438 17.623047 L 21.376953 15.978516 z M 2.703125 16.298828 L 6.5390625 17.783203 L 8.15625 21.539062 A 10.181907 10.181907 0 0 1 2.703125 16.298828 z M 12.25 20.005859 L 15.832031 21.513672 A 10.181907 10.181907 0 0 1 11.966797 22.285156 A 10.181907 10.181907 0 0 1 8.4980469 21.662109 L 12.25 20.005859 z "
     id="path838" />
</svg>

<svg xmlns="http://www.w3.org/2000/svg" width="24" height="24" version="1"><defs><linearGradient id="a"><stop offset="0"/><stop offset="1" stop-opacity="0"/></linearGradient></defs><path d="M12 .158A11.843 11.843 0 0 0 .156 12.002 11.843 11.843 0 0 0 12 23.842a11.843 11.843 0 0 0 11.844-11.84A11.843 11.843 0 0 0 12 .158zm-.033 1.76a10.182 10.182 0 0 1 3.56.656L12 4.195 8.096 2.691a10.182 10.182 0 0 1 3.87-.773zm3.869.77a10.182 10.182 0 0 1 5.402 5.236l-3.777-1.465-1.625-3.771zm-7.996.119L6.432 6.65 2.523 8.31A10.182 10.182 0 0 1 7.84 2.808zm.297 4.412c.214 0 .428.084.592.252L12 10.828l3.271-3.357a.824.824 0 0 1 1.186 0 .877.877 0 0 1 0 1.216l-3.271 3.358 3.271 3.357a.88.88 0 0 1 0 1.22.81.81 0 0 1-.594.251.806.806 0 0 1-.592-.252L12 13.261l-3.271 3.36a.806.806 0 0 1-.592.252.81.81 0 0 1-.594-.252.88.88 0 0 1 0-1.219l3.271-3.357-3.271-3.357a.877.877 0 0 1 0-1.217.827.827 0 0 1 .594-.252zm13.193.906a10.182 10.182 0 0 1 .818 3.977 10.182 10.182 0 0 1-.687 3.65l-1.647-3.826 1.516-3.801zm-18.836.262l1.692 3.93-1.538 3.86a10.182 10.182 0 0 1-.865-4.075 10.182 10.182 0 0 1 .711-3.715zm18.883 7.592a10.182 10.182 0 0 1-5.18 5.37l1.451-3.726 3.729-1.644zm-18.674.32l3.836 1.484 1.617 3.756a10.182 10.182 0 0 1-5.453-5.24zm9.547 3.707l3.582 1.508a10.182 10.182 0 0 1-3.865.771 10.182 10.182 0 0 1-3.469-.623l3.752-1.656z" fill="#500"/></svg>
